apps/sim/public/new/logo/colorized-bg.svg

<svg fill="none" height="400" viewBox="0 0 400 400" width="400" xmlns="http://www.w3.org/2000/svg" xmlns:xlink="http://www.w3.org/1999/xlink"><linearGradient id="a" gradientUnits="userSpaceOnUse" x1="218.434" x2="274.629" y1="218.27" y2="274.334"><stop offset="0"/><stop offset="1" stop-opacity="0"/></linearGradient><path d="m0 0h400v400h-400z" fill="#0b0b0b"/><path clip-rule="evenodd" d="m196.822 182.761c0 3.587-1.419 7.031-3.938 9.567l-.361.364c-2.517 2.544-5.937 3.966-9.499 3.966h-80.579c-7.4204 0-13.445 6.06-13.445 13.533v87.141c0 7.474 6.0246 13.534 13.445 13.534h86.517c7.421 0 13.438-6.06 13.438-13.534v-81.587c0-3.326 1.31-6.517 3.647-8.871 2.33-2.347 5.499-3.667 8.802-3.667h81.928c7.421 0 13.437-6.059 13.437-13.533v-87.141c0-7.4734-6.016-13.533-13.437-13.533h-86.517c-7.421 0-13.438 6.0596-13.438 13.533zm26.256-75.211h60.874c4.337 0 7.844 3.539 7.844 7.9v61.307c0 4.361-3.507 7.901-7.844 7.901h-60.874c-4.33 0-7.845-3.54-7.845-7.901v-61.307c0-4.361 3.515-7.9 7.845-7.9z" fill="#33c482" fill-rule="evenodd"/><path d="m296.878 218.57h-64.324c-7.798 0-14.12 6.367-14.12 14.221v63.993c0 7.854 6.322 14.221 14.12 14.221h64.324c7.799 0 14.121-6.367 14.121-14.221v-63.993c0-7.854-6.322-14.221-14.121-14.221z" fill="#33c482"/><path d="m296.878 218.27h-64.324c-7.798 0-14.12 6.366-14.12 14.221v63.992c0 7.854 6.322 14.22 14.12 14.22h64.324c7.799 0 14.121-6.366 14.121-14.22v-63.992c0-7.855-6.322-14.221-14.121-14.221z" fill="url(#a)" fill-opacity=".2"/></svg>

<svg width="400" height="400" viewBox="0 0 400 400" fill="none" xmlns="http://www.w3.org/2000/svg">
<rect width="400" height="400" fill="#0B0B0B"/>
<path fill-rule="evenodd" clip-rule="evenodd" d="M196.822 182.761C196.822 186.348 195.403 189.792 192.884 192.328L192.523 192.692C190.006 195.236 186.586 196.658 183.024 196.658H102.445C95.0246 196.658 89 202.718 89 210.191V297.332C89 304.806 95.0246 310.866 102.445 310.866H188.962C196.383 310.866 202.4 304.806 202.4 297.332V215.745C202.4 212.419 203.71 209.228 206.047 206.874C208.377 204.527 211.546 203.207 214.849 203.207H296.777C304.198 203.207 310.214 197.148 310.214 189.674V102.533C310.214 95.0596 304.198 89 296.777 89H210.26C202.839 89 196.822 95.0596 196.822 102.533V182.761ZM223.078 107.55H283.952C288.289 107.55 291.796 111.089 291.796 115.45V176.757C291.796 181.118 288.289 184.658 283.952 184.658H223.078C218.748 184.658 215.233 181.118 215.233 176.757V115.45C215.233 111.089 218.748 107.55 223.078 107.55Z" fill="#33C482"/>
<path d="M296.878 218.57H232.554C224.756 218.57 218.434 224.937 218.434 232.791V296.784C218.434 304.638 224.756 311.005 232.554 311.005H296.878C304.677 311.005 310.999 304.638 310.999 296.784V232.791C310.999 224.937 304.677 218.57 296.878 218.57Z" fill="#33C482"/>
<path d="M296.878 218.27H232.554C224.756 218.27 218.434 224.636 218.434 232.491V296.483C218.434 304.337 224.756 310.703 232.554 310.703H296.878C304.677 310.703 310.999 304.337 310.999 296.483V232.491C310.999 224.636 304.677 218.27 296.878 218.27Z" fill="url(#paint0_linear_2686_11143)" fill-opacity="0.2"/>
<defs>
<linearGradient id="paint0_linear_2686_11143" x1="218.434" y1="218.27" x2="274.629" y2="274.334" gradientUnits="userSpaceOnUse">
<stop/>
<stop offset="1" stop-opacity="0"/>
</linearGradient>
</defs>
</svg>
